X:1
T:Title
L:1/8
M:4/4
K:Ab
V:1 treble nm="Grand Piano"
V:1
 z4 z2 z C | D2 CC F2 C2 | F2 =EF G2 G2 | FGAG GFFE | EDDC C4 | D2 CC F2 C2 | F2 =EF G2 G2 | %7
 FGAG GFFE | EDDC C4 | z2 C2 D2 C2 | c4 A4- | A2 Bc dcBA | B4 G4- | G2 C2 D2 C2 | B4 G4- | %15
 G2 AB cBAG | A4 F4- | F2 A2 A2 c2 | A3 B G4- | G2 G2 G2 B2 | G3 A F4- | F2 F2 G2 A2 | B2 G2 c4- | %23
 c2 cB AGF=E | D3 =E C4 |] %25

